icons/usb-driveB.svg

<svg width="24" height="24" viewBox="0 0 24 24" fill="none" xmlns="http://www.w3.org/2000/svg">
<path d="M4.88755 19.0625C3.18755 17.3625 3.18755 14.5625 4.88755 12.8625L12.4875 5.26252C12.8875 4.86252 13.6875 4.86252 14.0875 5.26252L18.6875 9.86252C19.0875 10.2625 19.0875 11.0625 18.6875 11.4625L11.0875 19.0625C9.48755 20.7625 6.68755 20.7625 4.88755 19.0625Z" fill="black"/>
<path fill-rule="evenodd" clip-rule="evenodd" d="M13.2875 5.71252C13.1364 5.71252 13.0454 5.76533 13.0179 5.79285L5.41788 13.3929C4.01329 14.7974 4.01078 17.1168 5.41035 18.5246C6.93966 19.9614 9.25596 19.9143 10.5414 18.5485L10.5492 18.5402L18.1572 10.9322C18.1847 10.9047 18.2375 10.8137 18.2375 10.6625C18.2375 10.5114 18.1847 10.4204 18.1572 10.3929L13.5572 5.79285C13.5297 5.76533 13.4387 5.71252 13.2875 5.71252ZM13.2875 4.21252C13.7364 4.21252 14.2454 4.35971 14.6179 4.73219L19.2179 9.33219C19.5904 9.70467 19.7375 10.2137 19.7375 10.6625C19.7375 11.1114 19.5904 11.6204 19.2179 11.9929L11.6256 19.5852C9.71207 21.6083 6.44044 21.5608 4.37258 19.6078L4.36479 19.6004L4.35722 19.5929C2.36433 17.6 2.36433 14.3251 4.35722 12.3322L11.9572 4.73219C12.3297 4.35971 12.8387 4.21252 13.2875 4.21252Z" fill="black"/>
<path fill-rule="evenodd" clip-rule="evenodd" d="M16.9874 4.41248C16.9426 4.41248 16.8816 4.42897 16.8178 4.49281L15.8178 5.49281C15.7502 5.56036 15.7374 5.6227 15.7374 5.64998C15.7374 5.65642 15.7381 5.66078 15.7386 5.66336L15.7801 5.69446L18.2178 8.13215C18.278 8.19239 18.3376 8.21248 18.3999 8.21248C18.4641 8.21248 18.567 8.18948 18.691 8.09828L19.5571 7.23215C19.6209 7.16831 19.6374 7.1073 19.6374 7.06248C19.6374 7.01765 19.6209 6.95664 19.5571 6.89281L17.1571 4.49281C17.0933 4.42897 17.0323 4.41248 16.9874 4.41248ZM15.7571 3.43215C16.45 2.73925 17.5249 2.73925 18.2178 3.43215L20.6178 5.83215C21.3107 6.52504 21.3107 7.59991 20.6178 8.29281L19.6884 9.22218L19.6559 9.24813C18.9173 9.83907 17.8782 9.91389 17.1571 9.19281L14.7892 6.82495C13.9934 6.18141 14.1257 5.06356 14.7571 4.43215L15.7571 3.43215Z" fill="black"/>
</svg>

<svg xmlns="http://www.w3.org/2000/svg" fill="none" viewBox="0 0 24 24">
  <path fill="#000" d="M4.888 19.063c-1.7-1.7-1.7-4.5 0-6.2l7.6-7.6c.4-.4 1.2-.4 1.6 0l4.6 4.6c.4.4.4 1.2 0 1.6l-7.6 7.6c-1.6 1.7-4.4 1.7-6.2 0Z"/>
  <path fill="#000" fill-rule="evenodd" d="M13.287 5.713c-.15 0-.242.052-.27.08l-7.6 7.6c-1.404 1.404-1.406 3.724-.007 5.132 1.53 1.436 3.846 1.39 5.131.024l.008-.009 7.608-7.608c.028-.027.08-.118.08-.27 0-.15-.052-.242-.08-.27l-4.6-4.6c-.027-.027-.118-.08-.27-.08Zm0-1.5c.45 0 .958.147 1.33.52l4.6 4.6c.373.372.52.88.52 1.33 0 .448-.147.957-.52 1.33l-7.591 7.592c-1.914 2.023-5.186 1.976-7.253.023l-.008-.008-.008-.007c-1.993-1.993-1.993-5.268 0-7.26l7.6-7.6c.373-.373.882-.52 1.33-.52Z" clip-rule="evenodd"/>
  <path fill="#000" fill-rule="evenodd" d="M16.987 4.412a.24.24 0 0 0-.17.08l-1 1c-.067.068-.08.13-.08.158l.002.013.041.031 2.438 2.438c.06.06.12.08.182.08a.506.506 0 0 0 .291-.114l.866-.866a.24.24 0 0 0 .08-.17.24.24 0 0 0-.08-.17l-2.4-2.4a.24.24 0 0 0-.17-.08Zm-1.23-.98a1.716 1.716 0 0 1 2.46 0l2.4 2.4a1.716 1.716 0 0 1 0 2.46l-.929.93-.032.026c-.739.591-1.778.666-2.499-.055L14.79 6.825c-.796-.644-.663-1.761-.032-2.393l1-1Z" clip-rule="evenodd"/>
</svg>
